X:1
T:He’s My King
T:He’s My King
T:James David Vaughan
T:James Rowe, 1911
T:Public Domain Courtesy of the Cyber Hymnal™
T:Public Domain Courtesy of the Cyber Hymnal™
C:James David Vaughan
Z:Public Domain
Z:Courtesy of the Cyber Hymnal™
%%score ( 1 2 ) ( 3 4 )
L:1/8
Q:1/4=112
M:4/4
K:Ab
V:1 treble 
V:2 treble 
V:3 bass 
V:4 bass 
V:1
 [CA]2 [CA]2 [Ec]3 [EA] | [DF][EG][FA][DF] [DF] [CE]3 | [EA]2 [Ec]2 [Ae]3 [Ae] | %3
w: 1.~All day long of|Je- sus I am sing- ing,|He my song of|
w: 2.~Streams of love a-|round my soul are flow- ing,|From His heart love’s|
w: 3.~In His light, I’m|go- ing home to glo- ry,|With the souls who|
 [Af][Ae][Ae][Ac] [GB]4 | [CA]2 [CA]2 [Ec]3 [EA] | [DF][EG][FA][DF] [DF] [CE]3 | %6
w: joy will ev- er be;|All the while He|keeps my heart- bells ring- ing,|
w: ev- er- last- ing spring;|That is why my|faith in Him I’m show- ing,|
w: trust His sav- ing grace;|Go- ing home to|sing and tell His sto- ry,|
 [EA]2 [Ec]2 [Ae]3 [Ec] | [=DB][DA][Dc][_DB] [CA]4 ||"^Refrain" [Ae]3 [Ae] [Ec]3 [EA] | %9
w: For His love is|ev- ery- thing to me.|He’s my king, and|
w: That is why an|end- less song I sing.||
w: In the bless- èd|sun- shine of His face.||
 [DF][EG][FA][DF] [DF] [CE]3 | [Ae]3 [Ae] [Ac]3 [Ae] | [Af][Ae][Ae][Ac] [Ac] [GB]3 | %12
w: O I dear- ly love Him,|He’s my king, no|o- ther is a- bove Him;|
w: |||
w: |||
 [CA]2 [CA]2 [Ec]3 [EA] | [DF][EG][FA][DF] | [CE]4 | [Ae]3 [Ec] [=DB][DA][Ec][_DB] | A8 |] %17
w: All day long en-|rap- tured praise I|sing,|He’s my Sav- ior, He’s my|king!|
w: |||||
w: |||||
V:2
 x8 | x8 | x8 | x8 | x8 | x8 | x8 | x8 || x8 | x8 | x8 | x8 | x8 | x4 | x4 | x8 | (CCD<D C4) |] %17
V:3
 [A,,A,]2 [A,,E,]2 [A,,A,]3 [C,A,] | [D,A,][D,A,][D,A,][D,A,] [A,,A,] [A,,A,]3 | %2
w: ~ ~ ~ ~|~ ~ ~ ~ ~ ~|
 [A,C]2 A,2 [A,C]3 [A,C] | [A,D][A,C][A,C][A,E] [E,E]4 | [A,,A,]2 [A,,E,]2 [A,,A,]3 [C,A,] | %5
w: ~ ~ ~ ~|~ ~ ~ ~ ~|~ ~ ~ ~|
 [D,A,][D,A,][D,A,][D,A,] [A,,A,] [A,,A,]3 | [A,C]2 A,2 [A,C]3 A, | %7
w: ~ ~ ~ ~ ~ ~|~ ~ ~ ~|
 [F,A,][F,A,][E,A,][E,G,] [A,,A,]4 || [A,C][A,C][A,C][A,C] A,3 [C,A,] | %9
w: ~ ~ ~ ~ ~|He’s my pre- cious King, ~|
 [D,A,][D,A,][D,A,][D,A,] [A,,A,] [A,,A,]3 | [A,C][A,C][A,C][A,C] [A,E]3 [A,C] | %11
w: ~ ~ ~ ~ ~ ~|He’s my glo- rious King, ~|
 [A,D][A,C][A,C][A,E] [E,E] [E,E]3 | [A,,A,]2 [A,,E,]2 [A,,A,]3 [C,A,] | [D,A,][D,A,][D,A,][D,A,] | %14
w: ~ ~ ~ ~ ~ ~|~ ~ ~ ~|~ ~ ~ ~|
 [A,,A,][A,,A,] [A,,A,]2 | [A,C][A,C] [A,C]A, [F,A,][F,A,][E,A,][E,G,] | A,E, F,<F, E,4 |] %17
w: ~ I sing,|He’s my bless- èd Sav- ior, He’s my|King! my bless- èd King!|
V:4
 x8 | x8 | x2 A,2 x4 | x8 | x8 | x8 | x2 A,2 x A, x2 | x8 || x4 A,3 x | x8 | x8 | x8 | x8 | x4 | %14
 x4 | x8 | A,,8 |] %17

